usr/share/icons/biglinux-icons-material/24/actions/tools-wizard.svg

<svg version="1.1" viewBox="0 0 24 24" xmlns="http://www.w3.org/2000/svg">
 <defs>
  <style id="current-color-scheme" type="text/css">.ColorScheme-Text {
        color:#dedede;
      }</style>
 </defs>
 <path class="ColorScheme-Text" d="M 5.5,4 4.96875,4.96875 4,5.5 4.96875,6.03125 5.5,7 6.03125,6.03125 7,5.5 6.03125,4.96875 Z m 5,0 L 9.96875,4.96875 9,5.5 9.96875,6.03125 10.5,7 11.03125,6.03125 12,5.5 11.03125,4.96875 Z M 7.5,8 6.96875,8.96875 6,9.5 6.96875,10.03125 7.5,11 8.03125,10.03125 9,9.5 8.03125,8.96875 Z" fill="currentColor"/>
 <path class="ColorScheme-Text" d="m18.364 5.636c-0.78347-0.78347-2.045-0.78347-2.8284 6e-7l-9.8996 9.8996c-0.78347 0.78348-0.78347 2.045 0 2.8284 0.78347 0.78348 2.045 0.78348 2.8284 0l9.8996-9.8996c0.78348-0.78347 0.78348-2.045 0-2.8284zm-0.70711 0.70711c0.39174 0.39174 0.39174 1.0225 0 1.4142l-2.8284 2.8284-1.4142-1.4142 2.8284-2.8284c0.39174-0.39174 1.0225-0.39174 1.4142 0zm-4.9497 3.5355 1.4142 1.4142-6.364 6.364c-0.39174 0.39174-1.0225 0.39174-1.4142 0-0.39174-0.39174-0.39174-1.0225 1e-6 -1.4142z" fill="currentColor"/>
</svg>

<svg xmlns="http://www.w3.org/2000/svg" viewBox="0 0 24 24"><defs><style id="current-color-scheme" type="text/css">.ColorScheme-Text{color:#dedede}</style></defs><path fill="currentColor" d="m5.5 4-.531.969L4 5.5l.969.531L5.5 7l.531-.969L7 5.5l-.969-.531Zm5 0-.531.969L9 5.5l.969.531L10.5 7l.531-.969L12 5.5l-.969-.531Zm-3 4-.531.969L6 9.5l.969.531L7.5 11l.531-.969L9 9.5l-.969-.531ZM18.364 5.636a1.996 1.996 0 0 0-2.828 0l-9.9 9.9a1.996 1.996 0 0 0 0 2.828 1.996 1.996 0 0 0 2.828 0l9.9-9.9a1.996 1.996 0 0 0 0-2.828zm-.707.707a.998.998 0 0 1 0 1.414l-2.829 2.829-1.414-1.414 2.829-2.829a.998.998 0 0 1 1.414 0zm-4.95 3.536 1.414 1.414-6.364 6.364a.998.998 0 0 1-1.414 0 .998.998 0 0 1 0-1.414z" class="ColorScheme-Text"/></svg>
